files/1/256x256/places/folder-download.svg

<svg width="256" xmlns="http://www.w3.org/2000/svg" height="256" viewBox="0 0 256 256" xmlns:xlink="http://www.w3.org/1999/xlink">
<g style="stroke:#a57953">
<path style="fill:#a57953" d="M 4.34668 24.5 C 3.887207 24.453125 3.5 23.991699 3.5 23.498047 L 3.5 4.506836 C 3.5 3.97998 3.945801 3.5 4.4375 3.5 L 27.5625 3.5 C 28.054199 3.5 28.5 3.97998 28.5 4.506836 L 28.5 20.741699 C 28.5 21.268555 27.781738 22.025391 27.290527 22.025391 L 18.825195 22.010254 L 18.825195 23.334473 C 18.825195 23.856934 18.414062 24.5 17.925293 24.5 L 4.4375 24.5 C 4.408203 24.5 4.378906 24.5 4.34668 24.5 Z " transform="matrix(8 0 0 8 0 8)"/>
<path style="fill:#e9b080" d="M 1.549805 5.5 C 0.980469 5.546875 0.5 6.008301 0.5 6.501953 L 0.5 25.493164 C 0.5 26.02002 1.053223 26.5 1.662598 26.5 L 30.337402 26.5 C 30.946777 26.5 31.5 26.02002 31.5 25.493164 L 31.5 9.258301 C 31.5 8.731445 30.609375 7.974609 30 7.974609 L 19.503418 7.989746 L 19.503418 6.665527 C 19.503418 6.143066 18.993164 5.5 18.387695 5.5 L 1.662598 5.5 C 1.626465 5.5 1.589844 5.5 1.549805 5.5 Z " transform="matrix(8 0 0 8 0 8)"/>
</g>
<g style="fill:#a57953">
<path d="M 102.6875 144.011719 C 100.917969 144.09375 99.261719 144.769531 98.019531 145.867188 C 95.527344 148.058594 95.296875 151.789062 97.582031 154.144531 L 118.585938 174.125 C 120.066406 175.390625 122.207031 176.140625 124.277344 175.976562 C 125.960938 175.875 127.59375 175.152344 128.800781 174.125 L 149.804688 154.855469 C 151.136719 153.738281 151.941406 152.183594 151.992188 150.574219 C 152.117188 148.054688 150.292969 145.566406 147.617188 144.582031 C 144.941406 143.597656 141.59375 144.175781 139.59375 146.007812 L 123.984375 159.710938 L 107.644531 145.296875 C 106.273438 144.320312 104.453125 143.929688 102.6875 144.011719 Z "/>
<path d="M 124 104 C 121.90625 104 120.003906 106.128906 120.003906 108.5 L 120.003906 131.328125 C 119.925781 133.75 121.863281 136.007812 124 135.996094 C 124.121094 136 124.253906 136 124.375 135.996094 C 126.386719 135.796875 128.074219 133.617188 127.996094 131.328125 L 127.996094 108.5 C 127.996094 106.128906 126.089844 104 124 104 Z "/>
<path d="M 108 120 C 105.726562 120 103.703125 121.671875 104.035156 123.246094 L 104.035156 133.117188 C 103.945312 134.699219 106.121094 136.140625 108.371094 135.988281 C 110.339844 135.828125 112.046875 134.503906 111.964844 133.117188 L 111.964844 123.246094 C 112.296875 121.671875 110.273438 120 108 120 Z "/>
<path d="M 140 120 C 137.726562 120 135.703125 121.671875 136.035156 123.246094 L 136.035156 133.117188 C 135.945312 134.699219 138.121094 136.140625 140.371094 135.988281 C 142.339844 135.828125 144.046875 134.503906 143.964844 133.117188 L 143.964844 123.246094 C 144.296875 121.671875 142.273438 120 140 120 Z "/>
</g>
</svg>

<?xml version="1.0" encoding="UTF-8" standalone="no"?>
<svg
   xmlns:dc="http://purl.org/dc/elements/1.1/"
   xmlns:cc="http://creativecommons.org/ns#"
   xmlns:rdf="http://www.w3.org/1999/02/22-rdf-syntax-ns#"
   xmlns:svg="http://www.w3.org/2000/svg"
   xmlns="http://www.w3.org/2000/svg"
   xmlns:sodipodi="http://sodipodi.sourceforge.net/DTD/sodipodi-0.dtd"
   xmlns:inkscape="http://www.inkscape.org/namespaces/inkscape"
   width="256"
   height="256"
   viewBox="0 0 256 256"
   id="svg2993"
   version="1.1"
   inkscape:version="0.48.5 r10040"
   sodipodi:docname="folder-download.svg">
  <metadata
     id="metadata3015">
    <rdf:RDF>
      <cc:Work
         rdf:about="">
        <dc:format>image/svg+xml</dc:format>
        <dc:type
           rdf:resource="http://purl.org/dc/dcmitype/StillImage" />
      </cc:Work>
    </rdf:RDF>
  </metadata>
  <defs
     id="defs3013" />
  <sodipodi:namedview
     pagecolor="#ffffff"
     bordercolor="#666666"
     borderopacity="1"
     objecttolerance="10"
     gridtolerance="10"
     guidetolerance="10"
     inkscape:pageopacity="0"
     inkscape:pageshadow="2"
     inkscape:window-width="1280"
     inkscape:window-height="969"
     id="namedview3011"
     showgrid="false"
     inkscape:zoom="0.921875"
     inkscape:cx="-50.983051"
     inkscape:cy="125.83051"
     inkscape:window-x="0"
     inkscape:window-y="0"
     inkscape:window-maximized="1"
     inkscape:current-layer="svg2993" />
  <path
     style="fill:#e9b080;fill-opacity:1;stroke:none"
     d="m 36,29.999996 c -5.85566,0 -12,6 -12,12 l 0,4 -12,0 c -5.8804,0 -12,5.98132 -12,12 L 0,214 c 0,8 4,12 12,12 l 232,0 c 6.27046,0 12,-5.43338 12,-12 l 0,-136.000004 c 0,-6.01972 -5.82016,-12 -12,-12 l -12,0 0,-24 c 0,-5.84462 -5.81288,-12 -12,-12 z"
     id="path6-6"
     inkscape:connector-curvature="0"
     sodipodi:nodetypes="ssccssssscccsss" />
  <path
     sodipodi:nodetypes="sscsssssssscsssssscssssssss"
     inkscape:connector-curvature="0"
     style="fill:#000000;fill-opacity:0.32156863;stroke:none"
     d="m 36,29.999996 c -5.85566,0 -12,6 -12,12 l 0,4 -12,0 c -5.8804,0 -12,5.98132 -12,12 L 0,214 c 0,8 4,12 12,12 l 232,0 c 6.27046,0 12,-5.43338 12,-12 l 0,-136.000004 c 0,-6.01972 -5.82016,-12 -12,-12 l -12,0 0,-24 c 0,-5.84462 -5.81288,-12 -12,-12 z m -24,24 136,0 c 2.3607,0 4,2.05908 4,4 l 0,16 92,0 c 2.0222,0 4,2.03496 4,4 L 248,214 c 0,2.08516 -1.91506,4 -4,4 l -232,0 c -1.85718,0 -4,-1.58538 -4,-4 L 8,57.999996 c 0,-1.96962 2.06612,-4 4,-4 z"
     id="path3778" />
  <path
     style="fill:#000000;fill-opacity:0.32156864"
     inkscape:connector-curvature="0"
     id="path3003"
     d="m 102.6875,144.01172 c -1.76953,0.082 -3.425781,0.75781 -4.667969,1.85547 -2.492187,2.1914 -2.722656,5.92187 -0.4375,8.27734 L 118.58594,174.125 c 1.48047,1.26562 3.62109,2.01562 5.6914,1.85156 1.6836,-0.10156 3.31641,-0.82422 4.52344,-1.85156 l 21.00391,-19.26953 c 1.33203,-1.11719 2.13672,-2.67188 2.1875,-4.28125 0.125,-2.51953 -1.69922,-5.00781 -4.375,-5.99219 -2.67578,-0.98437 -6.02344,-0.40625 -8.02344,1.42578 l -15.60937,13.70313 -16.33985,-14.41407 c -1.37109,-0.97656 -3.1914,-1.36718 -4.95703,-1.28515 z" />
  <path
     style="fill:#000000;fill-opacity:0.32156864"
     inkscape:connector-curvature="0"
     id="path3005"
     d="m 124,104 c -2.09375,0 -3.99609,2.12891 -3.99609,4.5 l 0,22.82812 c -0.0781,2.42188 1.85937,4.67969 3.99609,4.66797 0.12109,0.004 0.25391,0.004 0.375,0 2.01172,-0.19922 3.69922,-2.3789 3.62109,-4.66797 l 0,-22.82812 c 0,-2.37109 -1.90625,-4.5 -3.99609,-4.5 z" />
  <path
     style="fill:#000000;fill-opacity:0.32156864"
     inkscape:connector-curvature="0"
     id="path3007"
     d="m 108,120 c -2.27344,0 -4.29687,1.67188 -3.96484,3.24609 l 0,9.8711 c -0.0898,1.58203 2.08593,3.02343 4.33593,2.87109 1.96875,-0.16016 3.67579,-1.48437 3.59375,-2.87109 l 0,-9.8711 C 112.29688,121.67188 110.27344,120 108,120 z" />
  <path
     style="fill:#000000;fill-opacity:0.32156864"
     inkscape:connector-curvature="0"
     id="path3009"
     d="m 140,120 c -2.27344,0 -4.29688,1.67188 -3.96484,3.24609 l 0,9.8711 c -0.0898,1.58203 2.08593,3.02343 4.33593,2.87109 1.96875,-0.16016 3.67578,-1.48437 3.59375,-2.87109 l 0,-9.8711 C 144.29687,121.67188 142.27344,120 140,120 z" />
</svg>
